local/share/icons/dracula-icons-main/16/places/folder-games.svg

<svg width="16" height="16" version="1.1" viewBox="0 0 16 16" xmlns="http://www.w3.org/2000/svg">
 <defs>
  <style id="current-color-scheme" type="text/css">.ColorScheme-Text { color:#FFFFFF; } .ColorScheme-Highlight { color:#5294e2; }</style>
 </defs>
 <path style="fill:currentColor" class="ColorScheme-Text" d="m11.17 2c-0.55935 0.00248-1.136 0.1903-1.5703 0.4668h-0.0019532c0.1233-0.078733-0.3899 0.20703-1.5918 0.20703-1.2106 0-1.7304-0.28805-1.6035-0.20703-0.40749-0.2603-1.0397-0.46094-1.5625-0.46094-0.52277 0-0.9962 0.12338-1.4473 0.33203l-0.0097656 0.0039063-0.0097656 0.0058593c-1.8464 0.87748-2.4915 2.5397-2.9648 4.4199v0.0019531 0.0019532c-0.2028 0.81241-0.3246 1.6795-0.37891 2.498-0.054304 0.8186-0.099884 1.485 0.13281 2.3477l0.0019531 0.005859 0.0019531 0.003906c0.14483 0.5269 0.39428 1.1337 0.95508 1.6406 0.5608 0.50688 1.3653 0.73242 1.9766 0.73242h0.017578 0.017578c1.9798-0.033706 3.0764-1.232 3.9355-2.6074-0.27201 0.35787 0.25829-0.063687 0.88281-0.046875l0.060547 0.001953 0.060547-0.001953c0.59876-0.020212 1.1298 0.40151 0.85742 0.044922 0.8601 1.3761 1.9688 2.5759 3.9453 2.6094h0.015625 0.017578c0.61238 0 1.4174-0.23033 1.9746-0.73633 0.55725-0.506 0.80616-1.1091 0.95117-1.6367l0.001954-0.003906 0.001953-0.005859c0.23269-0.86267 0.18712-1.5291 0.13281-2.3477-0.0543-0.81859-0.1761-1.6856-0.37891-2.498v-0.0019532-0.0019531c-0.473-1.8783-1.1188-3.5378-2.9609-4.416-0.40794-0.19662-0.90082-0.35017-1.4512-0.34961-0.003701 3.8e-6 -0.006066-0.0019731-0.009766-0.0019531zm0.009766 2c0.18148-8.64e-4 0.37416 0.048741 0.58789 0.15234 0.77243 0.3671 1.4948 1.5546 1.8848 3.1035 0.32997 1.3218 0.44889 3.1189 0.25391 3.8418-0.17248 0.62759-0.47306 0.90234-0.99805 0.90234-0.78743-0.01333-1.7686-0.79122-2.3984-1.8398-0.44996-0.58095-1.499-0.84642-2.5039-0.8125-1.0124-0.02725-2.0656 0.23153-2.5156 0.8125-0.62995 1.0486-1.6126 1.8266-2.3926 1.8398-0.53241 0-0.8314-0.27476-1.0039-0.90234-0.19498-0.72286-0.076068-2.52 0.25391-3.8418 0.38997-1.549 1.1123-2.7364 1.8848-3.1035 0.21748-0.1006 0.42744-0.14648 0.60742-0.14648 0.17998 0 0.32884 0.045887 0.48633 0.14648 0.39747 0.25383 1.2249 0.52148 2.6797 0.52148 1.4474 0 2.2704-0.26765 2.668-0.52148 0.15748-0.10026 0.32512-0.15154 0.50586-0.15234z" />
 <path style="fill:currentColor" class="ColorScheme-Text" d="m4 5h1v1h1v1h-1v1h-1v-1h-1v-1h1zm7.5 0c0.27614 0 0.5 0.22386 0.5 0.5s-0.22386 0.5-0.5 0.5-0.5-0.22386-0.5-0.5 0.22386-0.5 0.5-0.5zm-1 1c0.27614 0 0.5 0.22386 0.5 0.5s-0.22386 0.5-0.5 0.5-0.5-0.22386-0.5-0.5 0.22386-0.5 0.5-0.5zm2 0c0.27614 0 0.5 0.22386 0.5 0.5s-0.22386 0.5-0.5 0.5-0.5-0.22386-0.5-0.5 0.22386-0.5 0.5-0.5zm-1 1c0.27614 0 0.5 0.22386 0.5 0.5s-0.22386 0.5-0.5 0.5-0.5-0.22386-0.5-0.5 0.22386-0.5 0.5-0.5z"/>
</svg>

<?xml version="1.0" encoding="UTF-8"?>
<svg xmlns="http://www.w3.org/2000/svg" xmlns:xlink="http://www.w3.org/1999/xlink" width="16" height="16" viewBox="0 0 16 16">
<path fill-rule="nonzero" fill="rgb(100%, 100%, 100%)" fill-opacity="1" d="M 11.171875 2 C 10.609375 2.003906 10.035156 2.191406 9.601562 2.46875 L 9.597656 2.46875 C 9.722656 2.386719 9.207031 2.675781 8.007812 2.675781 C 6.796875 2.675781 6.277344 2.386719 6.402344 2.46875 C 5.996094 2.207031 5.363281 2.007812 4.839844 2.007812 C 4.316406 2.007812 3.84375 2.128906 3.394531 2.335938 L 3.382812 2.339844 L 3.375 2.347656 C 1.527344 3.226562 0.882812 4.886719 0.410156 6.765625 L 0.410156 6.769531 C 0.207031 7.582031 0.0820312 8.449219 0.03125 9.269531 C -0.0234375 10.089844 -0.0703125 10.753906 0.164062 11.617188 L 0.164062 11.621094 L 0.167969 11.625 C 0.3125 12.152344 0.558594 12.761719 1.121094 13.265625 C 1.683594 13.773438 2.488281 14 3.097656 14 L 3.132812 14 C 5.113281 13.964844 6.210938 12.769531 7.070312 11.390625 C 6.796875 11.75 7.328125 11.328125 7.953125 11.34375 L 8.011719 11.347656 L 8.074219 11.34375 C 8.671875 11.324219 9.203125 11.746094 8.929688 11.390625 C 9.789062 12.765625 10.898438 13.964844 12.875 14 L 12.910156 14 C 13.519531 14 14.324219 13.769531 14.882812 13.261719 C 15.441406 12.757812 15.6875 12.15625 15.835938 11.628906 L 15.835938 11.625 L 15.839844 11.617188 C 16.070312 10.753906 16.023438 10.089844 15.972656 9.269531 C 15.917969 8.449219 15.792969 7.582031 15.59375 6.773438 L 15.59375 6.769531 C 15.117188 4.890625 14.472656 3.230469 12.632812 2.351562 C 12.222656 2.15625 11.730469 2 11.179688 2.003906 C 11.175781 2.003906 11.171875 2 11.171875 2 Z M 11.179688 4 C 11.359375 4 11.554688 4.046875 11.769531 4.152344 C 12.539062 4.519531 13.261719 5.707031 13.652344 7.253906 C 13.984375 8.578125 14.101562 10.375 13.90625 11.097656 C 13.734375 11.726562 13.433594 12 12.910156 12 C 12.121094 11.988281 11.140625 11.207031 10.511719 10.160156 C 10.058594 9.578125 9.011719 9.3125 8.007812 9.347656 C 6.992188 9.320312 5.941406 9.578125 5.492188 10.160156 C 4.859375 11.207031 3.878906 11.988281 3.097656 12 C 2.566406 12 2.265625 11.726562 2.09375 11.097656 C 1.898438 10.375 2.019531 8.578125 2.347656 7.253906 C 2.738281 5.707031 3.460938 4.519531 4.234375 4.152344 C 4.449219 4.050781 4.660156 4.007812 4.839844 4.007812 C 5.019531 4.007812 5.167969 4.050781 5.328125 4.152344 C 5.722656 4.40625 6.550781 4.671875 8.007812 4.671875 C 9.453125 4.671875 10.277344 4.40625 10.675781 4.152344 C 10.832031 4.050781 11 4 11.179688 4 Z M 11.179688 4 "/>
<path fill-rule="nonzero" fill="rgb(100%, 100%, 100%)" fill-opacity="1" d="M 4 5 L 5 5 L 5 6 L 6 6 L 6 7 L 5 7 L 5 8 L 4 8 L 4 7 L 3 7 L 3 6 L 4 6 Z M 11.5 5 C 11.777344 5 12 5.222656 12 5.5 C 12 5.777344 11.777344 6 11.5 6 C 11.222656 6 11 5.777344 11 5.5 C 11 5.222656 11.222656 5 11.5 5 Z M 10.5 6 C 10.777344 6 11 6.222656 11 6.5 C 11 6.777344 10.777344 7 10.5 7 C 10.222656 7 10 6.777344 10 6.5 C 10 6.222656 10.222656 6 10.5 6 Z M 12.5 6 C 12.777344 6 13 6.222656 13 6.5 C 13 6.777344 12.777344 7 12.5 7 C 12.222656 7 12 6.777344 12 6.5 C 12 6.222656 12.222656 6 12.5 6 Z M 11.5 7 C 11.777344 7 12 7.222656 12 7.5 C 12 7.777344 11.777344 8 11.5 8 C 11.222656 8 11 7.777344 11 7.5 C 11 7.222656 11.222656 7 11.5 7 Z M 11.5 7 "/>
</svg>
